icons/24x24_credit_card_outline.svg

<svg xmlns="http://www.w3.org/2000/svg" width="24" height="24" viewBox="0 0 24 24">
  <path fill-rule="evenodd" d="M5,9 L19,9 L19,8 C19,7.44771525 18.5522847,7 18,7 L6,7 C5.44771525,7 5,7.44771525 5,8 L5,9 Z M5,12 L5,16 C5,16.5522847 5.44771525,17 6,17 L18,17 C18.5522847,17 19,16.5522847 19,16 L19,12 L5,12 Z M6,5 L18,5 C19.6568542,5 21,6.34314575 21,8 L21,16 C21,17.6568542 19.6568542,19 18,19 L6,19 C4.34314575,19 3,17.6568542 3,16 L3,8 C3,6.34314575 4.34314575,5 6,5 Z"/>
</svg>

<svg width="24" height="24" fill="none" xmlns="http://www.w3.org/2000/svg"><path fill-rule="evenodd" clip-rule="evenodd" d="M5 9h14V8a1 1 0 0 0-1-1H6a1 1 0 0 0-1 1v1Zm0 3v4a1 1 0 0 0 1 1h12a1 1 0 0 0 1-1v-4H5Zm1-7h12a3 3 0 0 1 3 3v8a3 3 0 0 1-3 3H6a3 3 0 0 1-3-3V8a3 3 0 0 1 3-3Z" fill="#000"/></svg>
